flaticon/seo-and-analytics/analytics-25.svg

<svg xmlns="http://www.w3.org/2000/svg" width="32" height="32" viewBox="0 0 24 24">
    <path d="M 23.601562 22.398438 L 23.199219 22.398438 L 23.199219 22 C 23.199219 21.761719 23.039062 21.601562 22.800781 21.601562 C 22.558594 21.601562 22.398438 21.761719 22.398438 22 L 22.398438 22.398438 L 21.199219 22.398438 L 21.199219 22 C 21.199219 21.761719 21.039062 21.601562 20.800781 21.601562 C 20.558594 21.601562 20.398438 21.761719 20.398438 22 L 20.398438 22.398438 L 19.199219 22.398438 L 19.199219 22 C 19.199219 21.761719 19.039062 21.601562 18.800781 21.601562 C 18.558594 21.601562 18.398438 21.761719 18.398438 22 L 18.398438 22.398438 L 17.199219 22.398438 L 17.199219 22 C 17.199219 21.761719 17.039062 21.601562 16.800781 21.601562 C 16.558594 21.601562 16.398438 21.761719 16.398438 22 L 16.398438 22.398438 L 15.199219 22.398438 L 15.199219 22 C 15.199219 21.761719 15.039062 21.601562 14.800781 21.601562 C 14.558594 21.601562 14.398438 21.761719 14.398438 22 L 14.398438 22.398438 L 13.199219 22.398438 L 13.199219 22 C 13.199219 21.761719 13.039062 21.601562 12.800781 21.601562 C 12.558594 21.601562 12.398438 21.761719 12.398438 22 L 12.398438 22.398438 L 11.199219 22.398438 L 11.199219 22 C 11.199219 21.761719 11.039062 21.601562 10.800781 21.601562 C 10.558594 21.601562 10.398438 21.761719 10.398438 22 L 10.398438 22.398438 L 9.199219 22.398438 L 9.199219 22 C 9.199219 21.761719 9.039062 21.601562 8.800781 21.601562 C 8.558594 21.601562 8.398438 21.761719 8.398438 22 L 8.398438 22.398438 L 7.199219 22.398438 L 7.199219 22 C 7.199219 21.761719 7.039062 21.601562 6.800781 21.601562 C 6.558594 21.601562 6.398438 21.761719 6.398438 22 L 6.398438 22.398438 L 5.199219 22.398438 L 5.199219 22 C 5.199219 21.761719 5.039062 21.601562 4.800781 21.601562 C 4.558594 21.601562 4.398438 21.761719 4.398438 22 L 4.398438 22.398438 L 3.199219 22.398438 L 3.199219 22 C 3.199219 21.761719 3.039062 21.601562 2.800781 21.601562 C 2.558594 21.601562 2.398438 21.761719 2.398438 22 L 2.398438 22.398438 L 1.601562 22.398438 L 1.601562 20 L 2 20 C 2.238281 20 2.398438 19.839844 2.398438 19.601562 C 2.398438 19.359375 2.238281 19.199219 2 19.199219 L 1.601562 19.199219 L 1.601562 18 L 2 18 C 2.238281 18 2.398438 17.839844 2.398438 17.601562 C 2.398438 17.359375 2.238281 17.199219 2 17.199219 L 1.601562 17.199219 L 1.601562 16 L 2 16 C 2.238281 16 2.398438 15.839844 2.398438 15.601562 C 2.398438 15.359375 2.238281 15.199219 2 15.199219 L 1.601562 15.199219 L 1.601562 14 L 2 14 C 2.238281 14 2.398438 13.839844 2.398438 13.601562 C 2.398438 13.359375 2.238281 13.199219 2 13.199219 L 1.601562 13.199219 L 1.601562 12 L 2 12 C 2.238281 12 2.398438 11.839844 2.398438 11.601562 C 2.398438 11.359375 2.238281 11.199219 2 11.199219 L 1.601562 11.199219 L 1.601562 10 L 2 10 C 2.238281 10 2.398438 9.839844 2.398438 9.601562 C 2.398438 9.359375 2.238281 9.199219 2 9.199219 L 1.601562 9.199219 L 1.601562 8 L 2 8 C 2.238281 8 2.398438 7.839844 2.398438 7.601562 C 2.398438 7.359375 2.238281 7.199219 2 7.199219 L 1.601562 7.199219 L 1.601562 6 L 2 6 C 2.238281 6 2.398438 5.839844 2.398438 5.601562 C 2.398438 5.359375 2.238281 5.199219 2 5.199219 L 1.601562 5.199219 L 1.601562 4 L 2 4 C 2.238281 4 2.398438 3.839844 2.398438 3.601562 C 2.398438 3.359375 2.238281 3.199219 2 3.199219 L 1.601562 3.199219 L 1.601562 2 L 2 2 C 2.238281 2 2.398438 1.839844 2.398438 1.601562 C 2.398438 1.359375 2.238281 1.199219 2 1.199219 L 1.601562 1.199219 L 1.601562 0.398438 C 1.601562 0.160156 1.441406 0 1.199219 0 C 0.960938 0 0.800781 0.160156 0.800781 0.398438 L 0.800781 1.199219 L 0.398438 1.199219 C 0.160156 1.199219 0 1.359375 0 1.601562 C 0 1.839844 0.160156 2 0.398438 2 L 0.800781 2 L 0.800781 3.199219 L 0.398438 3.199219 C 0.160156 3.199219 0 3.359375 0 3.601562 C 0 3.839844 0.160156 4 0.398438 4 L 0.800781 4 L 0.800781 5.199219 L 0.398438 5.199219 C 0.160156 5.199219 0 5.359375 0 5.601562 C 0 5.839844 0.160156 6 0.398438 6 L 0.800781 6 L 0.800781 7.199219 L 0.398438 7.199219 C 0.160156 7.199219 0 7.359375 0 7.601562 C 0 7.839844 0.160156 8 0.398438 8 L 0.800781 8 L 0.800781 9.199219 L 0.398438 9.199219 C 0.160156 9.199219 0 9.359375 0 9.601562 C 0 9.839844 0.160156 10 0.398438 10 L 0.800781 10 L 0.800781 11.199219 L 0.398438 11.199219 C 0.160156 11.199219 0 11.359375 0 11.601562 C 0 11.839844 0.160156 12 0.398438 12 L 0.800781 12 L 0.800781 13.199219 L 0.398438 13.199219 C 0.160156 13.199219 0 13.359375 0 13.601562 C 0 13.839844 0.160156 14 0.398438 14 L 0.800781 14 L 0.800781 15.199219 L 0.398438 15.199219 C 0.160156 15.199219 0 15.359375 0 15.601562 C 0 15.839844 0.160156 16 0.398438 16 L 0.800781 16 L 0.800781 17.199219 L 0.398438 17.199219 C 0.160156 17.199219 0 17.359375 0 17.601562 C 0 17.839844 0.160156 18 0.398438 18 L 0.800781 18 L 0.800781 19.199219 L 0.398438 19.199219 C 0.160156 19.199219 0 19.359375 0 19.601562 C 0 19.839844 0.160156 20 0.398438 20 L 0.800781 20 L 0.800781 21.199219 L 0.398438 21.199219 C 0.160156 21.199219 0 21.359375 0 21.601562 C 0 21.839844 0.160156 22 0.398438 22 L 0.800781 22 L 0.800781 22.800781 C 0.800781 23.039062 0.960938 23.199219 1.199219 23.199219 L 2.398438 23.199219 L 2.398438 23.601562 C 2.398438 23.839844 2.558594 24 2.800781 24 C 3.039062 24 3.199219 23.839844 3.199219 23.601562 L 3.199219 23.199219 L 4.398438 23.199219 L 4.398438 23.601562 C 4.398438 23.839844 4.558594 24 4.800781 24 C 5.039062 24 5.199219 23.839844 5.199219 23.601562 L 5.199219 23.199219 L 6.398438 23.199219 L 6.398438 23.601562 C 6.398438 23.839844 6.558594 24 6.800781 24 C 7.039062 24 7.199219 23.839844 7.199219 23.601562 L 7.199219 23.199219 L 8.398438 23.199219 L 8.398438 23.601562 C 8.398438 23.839844 8.558594 24 8.800781 24 C 9.039062 24 9.199219 23.839844 9.199219 23.601562 L 9.199219 23.199219 L 10.398438 23.199219 L 10.398438 23.601562 C 10.398438 23.839844 10.558594 24 10.800781 24 C 11.039062 24 11.199219 23.839844 11.199219 23.601562 L 11.199219 23.199219 L 12.398438 23.199219 L 12.398438 23.601562 C 12.398438 23.839844 12.558594 24 12.800781 24 C 13.039062 24 13.199219 23.839844 13.199219 23.601562 L 13.199219 23.199219 L 14.398438 23.199219 L 14.398438 23.601562 C 14.398438 23.839844 14.558594 24 14.800781 24 C 15.039062 24 15.199219 23.839844 15.199219 23.601562 L 15.199219 23.199219 L 16.398438 23.199219 L 16.398438 23.601562 C 16.398438 23.839844 16.558594 24 16.800781 24 C 17.039062 24 17.199219 23.839844 17.199219 23.601562 L 17.199219 23.199219 L 18.398438 23.199219 L 18.398438 23.601562 C 18.398438 23.839844 18.558594 24 18.800781 24 C 19.039062 24 19.199219 23.839844 19.199219 23.601562 L 19.199219 23.199219 L 20.398438 23.199219 L 20.398438 23.601562 C 20.398438 23.839844 20.558594 24 20.800781 24 C 21.039062 24 21.199219 23.839844 21.199219 23.601562 L 21.199219 23.199219 L 22.398438 23.199219 L 22.398438 23.601562 C 22.398438 23.839844 22.558594 24 22.800781 24 C 23.039062 24 23.199219 23.839844 23.199219 23.601562 L 23.199219 23.199219 L 23.597656 23.199219 C 23.839844 23.199219 24 23.039062 24 22.800781 C 24 22.558594 23.839844 22.398438 23.601562 22.398438 Z M 23.601562 22.398438"/>
    <path d="M7.199219 14.71875C7.199219 14.320312 6.878906 14 6.480469 14L3.921875 14C3.519531 14 3.199219 14.320312 3.199219 14.71875L3.199219 20.398438 7.199219 20.398438zM6.398438 19.601562L4 19.601562 4 14.800781 6.398438 14.800781zM8.398438 7.519531L8.398438 20.398438 12.398438 20.398438 12.398438 7.519531C12.398438 7.121094 12.078125 6.800781 11.679688 6.800781L9.121094 6.800781C8.71875 6.800781 8.398438 7.121094 8.398438 7.519531zM9.199219 7.601562L11.601562 7.601562 11.601562 19.601562 9.199219 19.601562zM17.601562 10.71875C17.601562 10.320312 17.28125 10 16.878906 10L14.320312 10C13.921875 10 13.601562 10.320312 13.601562 10.71875L13.601562 20.398438 17.601562 20.398438zM16.800781 19.601562L14.398438 19.601562 14.398438 10.800781 16.800781 10.800781zM22.800781 4.71875C22.800781 4.320312 22.480469 4 22.078125 4L19.519531 4C19.121094 4 18.800781 4.320312 18.800781 4.71875L18.800781 20.398438 22.800781 20.398438zM22 19.601562L19.601562 19.601562 19.601562 4.800781 22 4.800781zM6.398438 2.398438L8.398438 2.398438C8.640625 2.398438 8.800781 2.238281 8.800781 2 8.800781 1.761719 8.640625 1.601562 8.398438 1.601562L6.398438 1.601562C6.160156 1.601562 6 1.761719 6 2 6 2.238281 6.160156 2.398438 6.398438 2.398438zM4.398438 2.398438L4.800781 2.398438C5.039062 2.398438 5.199219 2.238281 5.199219 2 5.199219 1.761719 5.039062 1.601562 4.800781 1.601562L4.398438 1.601562C4.160156 1.601562 4 1.761719 4 2 4 2.238281 4.160156 2.398438 4.398438 2.398438zM4.398438 4L6 4C6.238281 4 6.398438 3.839844 6.398438 3.601562 6.398438 3.359375 6.238281 3.199219 6 3.199219L4.398438 3.199219C4.160156 3.199219 4 3.359375 4 3.601562 4 3.839844 4.160156 4 4.398438 4zM8.800781 3.601562C8.800781 3.359375 8.640625 3.199219 8.398438 3.199219L7.601562 3.199219C7.359375 3.199219 7.199219 3.359375 7.199219 3.601562 7.199219 3.839844 7.359375 4 7.601562 4L8.398438 4C8.640625 4 8.800781 3.839844 8.800781 3.601562zM8.800781 3.601562"/>
</svg>

<svg xmlns="http://www.w3.org/2000/svg" width="32" height="32" viewBox="0 0 24 24">
    <path d="M23.602 22.398h-.403V22c0-.238-.16-.398-.398-.398-.242 0-.403.16-.403.398v.398H21.2V22c0-.238-.16-.398-.398-.398-.242 0-.403.16-.403.398v.398H19.2V22c0-.238-.16-.398-.398-.398-.242 0-.403.16-.403.398v.398H17.2V22c0-.238-.16-.398-.398-.398-.242 0-.403.16-.403.398v.398H15.2V22c0-.238-.16-.398-.398-.398-.242 0-.403.16-.403.398v.398H13.2V22c0-.238-.16-.398-.398-.398-.242 0-.403.16-.403.398v.398H11.2V22c0-.238-.16-.398-.398-.398-.242 0-.403.16-.403.398v.398H9.2V22c0-.238-.16-.398-.398-.398-.242 0-.403.16-.403.398v.398H7.2V22c0-.238-.16-.398-.398-.398-.242 0-.403.16-.403.398v.398H5.2V22c0-.238-.16-.398-.398-.398-.242 0-.403.16-.403.398v.398H3.2V22c0-.238-.16-.398-.398-.398-.242 0-.403.16-.403.398v.398h-.796V20H2c.238 0 .398-.16.398-.398 0-.243-.16-.403-.398-.403h-.398V18H2c.238 0 .398-.16.398-.398 0-.243-.16-.403-.398-.403h-.398V16H2c.238 0 .398-.16.398-.398 0-.243-.16-.403-.398-.403h-.398V14H2c.238 0 .398-.16.398-.398 0-.243-.16-.403-.398-.403h-.398V12H2c.238 0 .398-.16.398-.398 0-.243-.16-.403-.398-.403h-.398V10H2c.238 0 .398-.16.398-.398 0-.243-.16-.403-.398-.403h-.398V8H2c.238 0 .398-.16.398-.398 0-.243-.16-.403-.398-.403h-.398V6H2c.238 0 .398-.16.398-.398 0-.243-.16-.403-.398-.403h-.398V4H2c.238 0 .398-.16.398-.398 0-.243-.16-.403-.398-.403h-.398V2H2c.238 0 .398-.16.398-.398 0-.243-.16-.403-.398-.403h-.398V.4C1.602.16 1.442 0 1.199 0 .961 0 .801.16.801.398V1.2H.398C.16 1.2 0 1.36 0 1.602 0 1.84.16 2 .398 2h.403v1.2H.398C.16 3.2 0 3.36 0 3.601 0 3.84.16 4 .398 4h.403v1.2H.398C.16 5.2 0 5.36 0 5.601 0 5.84.16 6 .398 6h.403v1.2H.398C.16 7.2 0 7.36 0 7.601 0 7.84.16 8 .398 8h.403v1.2H.398C.16 9.2 0 9.36 0 9.601 0 9.84.16 10 .398 10h.403v1.2H.398c-.238 0-.398.16-.398.402 0 .238.16.398.398.398h.403v1.2H.398c-.238 0-.398.16-.398.402 0 .238.16.398.398.398h.403v1.2H.398c-.238 0-.398.16-.398.402 0 .238.16.398.398.398h.403v1.2H.398c-.238 0-.398.16-.398.402 0 .238.16.398.398.398h.403v1.2H.398c-.238 0-.398.16-.398.402 0 .238.16.398.398.398h.403v1.2H.398c-.238 0-.398.16-.398.402 0 .238.16.398.398.398h.403v.8c0 .24.16.4.398.4h1.2v.402c0 .238.16.398.402.398.238 0 .398-.16.398-.398v-.403h1.2v.403c0 .238.16.398.402.398.238 0 .398-.16.398-.398v-.403h1.2v.403c0 .238.16.398.402.398.238 0 .398-.16.398-.398v-.403h1.2v.403c0 .238.16.398.402.398.238 0 .398-.16.398-.398v-.403h1.2v.403c0 .238.16.398.402.398.238 0 .398-.16.398-.398v-.403h1.2v.403c0 .238.16.398.402.398.238 0 .398-.16.398-.398v-.403h1.2v.403c0 .238.16.398.402.398.238 0 .398-.16.398-.398v-.403h1.2v.403c0 .238.16.398.402.398.238 0 .398-.16.398-.398v-.403h1.2v.403c0 .238.16.398.402.398.238 0 .398-.16.398-.398v-.403h1.2v.403c0 .238.16.398.402.398.238 0 .398-.16.398-.398v-.403h1.2v.403c0 .238.16.398.402.398.238 0 .398-.16.398-.398v-.403h.399c.242 0 .402-.16.402-.398 0-.242-.16-.403-.398-.403zm0 0"/>
    <path d="M7.2 14.719A.717.717 0 0 0 6.48 14H3.922a.718.718 0 0 0-.723.719v5.68h4zm-.802 4.883H4V14.8h2.398zm0 0M8.398 7.52v12.878h4V7.52a.717.717 0 0 0-.718-.72H9.12a.718.718 0 0 0-.723.72zm.801.082h2.403v12H9.199zm0 0M17.602 10.719a.718.718 0 0 0-.723-.719H14.32a.717.717 0 0 0-.718.719v9.68h4zm-.801 8.883h-2.403V10.8h2.403zm0 0M22.8 4.719A.718.718 0 0 0 22.079 4H19.52a.717.717 0 0 0-.72.719v15.68h4zM22 19.602h-2.398V4.8H22zm0 0M6.398 2.398h2c.243 0 .403-.16.403-.398 0-.238-.16-.398-.403-.398h-2C6.16 1.602 6 1.762 6 2c0 .238.16.398.398.398zm0 0M4.398 2.398h.403c.238 0 .398-.16.398-.398 0-.238-.16-.398-.398-.398h-.403C4.16 1.602 4 1.762 4 2c0 .238.16.398.398.398zm0 0M4.398 4H6c.238 0 .398-.16.398-.398 0-.243-.16-.403-.398-.403H4.398C4.16 3.2 4 3.36 4 3.602c0 .238.16.398.398.398zm0 0M8.8 3.602c0-.243-.16-.403-.402-.403h-.796c-.243 0-.403.16-.403.403 0 .238.16.398.403.398h.796c.243 0 .403-.16.403-.398zm0 0"/>
</svg>
